X:1
T:Title
%%score [ ( 1 2 ) ( 3 4 ) ]
L:1/8
Q:1/4=100
M:4/4
K:A
V:1 treble nm="Midi_20"
V:2 treble 
V:3 bass nm="Midi_20"
V:4 bass 
V:1
"^High in the heavens, eternal God""^Charles Wesley (the younger)\n(1757-1834)""^Isaac Watts\n(1674-1748)""^Berkshire (L.M.)" E2 | %1
 A2 c2 F2 d2 | c2 BA B2 E2 | A2 c2 B2 EF | G2 F2 E2 || E2 | B2 c2 d2 B2 | cA GA B2 E2 | %8
 A2 c2 F2 d2 | c2 B2 A2 |] %10
V:2
 E2 | E2 C2 D2 D2 | E2 ^D2 E2 E2 | E2 A,2 B,2 C2 | E2 ^D2 E2 || E2 | F2 F2 F2 E2 | E2 ^D2 E2 E2 | %8
 E2 E2 D2 D2 | E2 E2 C2 |] %10
V:3
"^1. High in the heav'ns, eternal God,\nThy goodness in full glory shines\nThy truth shall break through every cloud\nThat veils and darkens thy designs.\n\n2. For ever firm thy justice stands,\nAs mountains their foundations keep;\nWise are the wonders of thy hands;\nThy judgments are a mighty deep.\n\n3. Thy providence is kind and large,\nBoth man and beast thy bounty share;\nThe whole creation is thy charge,\nBut saints are thy peculiar care." G,2 | %1
 E,2 A,2 A,2 G,2 | A,2 A,2 G,2 G,2 | A,2 E,2 E,2 G,A, | B,2 B,A, G,2 || %5
"^4. My God! how excellent thy grace,\nWhence all our hope and comfort springs!\nThe sons of Adam in distress\nFly to the shadow of thy wings.\n\n5. From the provisions of thy house\nWe shall be fed with sweet repast;\nThere mercy like a river flows,\nAnd brings salvation to our taste.\n\n6. Life, like a fountain rich and free,\nSprings from the presence of the Lord;\nAnd in thy light our souls shall see\nThe glories promised in thy word." G,2 | %6
 F,2 ^A,2 B,2 G,2 | A,2 B,A, G,2 G,2 | A,2 A,2 A,2 B,2 | A,2 G,2 A,2 |] %10
V:4
 E,2 | C,2 A,,2 D,2 B,,2 | C,2 F,2 E,2 E,2 | C,2 A,,2 G,,2 C,2 | B,,2 B,,2 E,2 || E,2 | %6
 D,2 F,2 B,,2 E,2 | A,2 F,2 E,2 E,2 | C,2 A,,2 D,2 B,,2 | E,2 E,2 A,,2 |] %10

